www/assets/icons/piano_off.svg

<svg width="24" height="24" viewBox="0 0 24 24" xmlns="http://www.w3.org/2000/svg" fill='currentColor'><path d="M21.9 20.4801L3.51998 2.1001L2.09998 3.5101L3.70998 5.1201V18.2901C3.70998 19.3901 4.60998 20.2901 5.70998 20.2901H18.88L20.49 21.9001L21.9 20.4801ZM8.95998 18.2901H5.70998V7.1201L7.70998 9.1201V12.7901C7.70998 13.3401 8.15998 13.7901 8.70998 13.7901H8.95998V18.2901ZM10.46 18.2901V13.7901H10.71C11.17 13.7901 11.53 13.4801 11.65 13.0601L14.96 16.3701V18.2901H10.46ZM11.71 7.4601L6.53998 2.2901H19.71C20.81 2.2901 21.71 3.1901 21.71 4.2901V17.4601L19.71 15.4601V4.2901H17.71V12.7901C17.71 12.9801 17.64 13.1501 17.55 13.3001L13.71 9.4601V4.2901H11.71V7.4601Z"/></svg>

<svg xmlns="http://www.w3.org/2000/svg" width="24" height="24" viewBox="0 0 24 24" fill='currentColor'><path d="M21.9 20.48 3.52 2.1 2.1 3.51l1.61 1.61v13.17c0 1.1.9 2 2 2h13.17l1.61 1.61zM8.96 18.29H5.71V7.12l2 2v3.67c0 .55.45 1 1 1h.25zm1.5 0v-4.5h.25c.46 0 .82-.31.94-.73l3.31 3.31v1.92zm1.25-10.83L6.54 2.29h13.17c1.1 0 2 .9 2 2v13.17l-2-2V4.29h-2v8.5c0 .19-.07.36-.16.51l-3.84-3.84V4.29h-2z"/></svg>
